X: 1
T: Donald Willie and his Dog
C: P.M. Donald Morrison
R: slip-jig, retreat march
Z: 2014 John Chambers <jc:trillian.mit.edu>
S: Page from Concord Slow Scottish Session collection (Chords: R.McO)
M: 9/8
L: 1/8
K: Amix=g
|:\
"A"A2c cAc "G"B2G | "A"A2c cAc "G"B3 |\
"A"A2c cAc "G"B2A | "A"c2A "G"ABG "A"A3 :|
|:\
"Em"B2e eAc B2A | B2e eAc B3 |\
"A"c2e eAc "G"BA | "A"c2A "G"ABG "A"A3 :|
|:\
"A"A2c ABB c2A | A2B Acc "G"B3 |\
"A"A2c ABB c2B | "A"c2A "G"ABG "A"A3 :|
|:\
"A"e2c cfd e2d | "A"cec cdc "E"B3 |\
"A"e2c cfd e2d | "A"c2A "G"ABG "A"A3 :|
